src/assets/visibility.svg

<svg width="40" height="41" viewBox="0 0 40 41" fill="none" xmlns="http://www.w3.org/2000/svg">
<mask id="mask0_1744_185" style="mask-type:alpha" maskUnits="userSpaceOnUse" x="0" y="0" width="40" height="41">
<rect y="0.25" width="40" height="40" fill="#D9D9D9"/>
</mask>
<g mask="url(#mask0_1744_185)">
<path d="M8.44034 34.4167C7.72395 34.4167 7.11034 34.1613 6.5995 33.6505C6.08867 33.1396 5.83325 32.526 5.83325 31.8096V25.408H7.92742V31.8096C7.92742 31.938 7.98075 32.0556 8.08742 32.1625C8.19436 32.2692 8.312 32.3225 8.44034 32.3225H14.842V34.4167H8.44034ZM25.1578 34.4167V32.3225H31.5595C31.6878 32.3225 31.8055 32.2692 31.9124 32.1625C32.0191 32.0556 32.0724 31.938 32.0724 31.8096V25.408H34.1666V31.8096C34.1666 32.526 33.9112 33.1396 33.4003 33.6505C32.8895 34.1613 32.2759 34.4167 31.5595 34.4167H25.1578ZM5.83325 15.0921V8.69046C5.83325 7.97407 6.08867 7.36046 6.5995 6.84962C7.11034 6.33879 7.72395 6.08337 8.44034 6.08337H14.842V8.17754H8.44034C8.312 8.17754 8.19436 8.23087 8.08742 8.33754C7.98075 8.44448 7.92742 8.56212 7.92742 8.69046V15.0921H5.83325ZM32.0724 15.0921V8.69046C32.0724 8.56212 32.0191 8.44448 31.9124 8.33754C31.8055 8.23087 31.6878 8.17754 31.5595 8.17754H25.1578V6.08337H31.5595C32.2759 6.08337 32.8895 6.33879 33.4003 6.84962C33.9112 7.36046 34.1666 7.97407 34.1666 8.69046V15.0921H32.0724ZM19.9999 27.485C17.9971 27.485 16.2906 26.7799 14.8803 25.3696C13.4701 23.9593 12.7649 22.2528 12.7649 20.25C12.7649 18.2475 13.4701 16.541 14.8803 15.1305C16.2906 13.7202 17.9971 13.015 19.9999 13.015C22.0024 13.015 23.7089 13.7202 25.1195 15.1305C26.5298 16.541 27.2349 18.2475 27.2349 20.25C27.2349 22.2528 26.5298 23.9593 25.1195 25.3696C23.7089 26.7799 22.0024 27.485 19.9999 27.485ZM19.9999 25.3909C21.4416 25.3909 22.6588 24.8945 23.6516 23.9017C24.6444 22.9089 25.1408 21.6917 25.1408 20.25C25.1408 18.8084 24.6444 17.5912 23.6516 16.5984C22.6588 15.6056 21.4416 15.1092 19.9999 15.1092C18.5583 15.1092 17.341 15.6056 16.3483 16.5984C15.3555 17.5912 14.8591 18.8084 14.8591 20.25C14.8591 21.6917 15.3555 22.9089 16.3483 23.9017C17.341 24.8945 18.5583 25.3909 19.9999 25.3909Z" fill="white"/>
</g>
</svg>

<svg width="40" height="41" viewBox="0 0 40 41" fill="none" xmlns="http://www.w3.org/2000/svg"><mask id="mask0_1744_185" style="mask-type:alpha" maskUnits="userSpaceOnUse" x="0" y="0" width="40" height="41"><path fill="#d9d9d9" d="M0 .25h40v40H0z"/></mask><g mask="url(#mask0_1744_185)"><path d="M8.44 34.417a2.5 2.5 0 0 1-1.84-.767 2.5 2.5 0 0 1-.767-1.84v-6.402h2.094v6.402a.5.5 0 0 0 .16.353q.16.16.353.16h6.402v2.094zm16.718 0v-2.095h6.401a.5.5 0 0 0 .353-.16.5.5 0 0 0 .16-.352v-6.402h2.095v6.402a2.5 2.5 0 0 1-.767 1.84 2.5 2.5 0 0 1-1.84.767zM5.833 15.092V8.69q0-1.075.766-1.84a2.5 2.5 0 0 1 1.841-.767h6.402v2.095H8.44a.5.5 0 0 0-.353.16.5.5 0 0 0-.16.352v6.402zm26.24 0V8.69a.5.5 0 0 0-.16-.352.5.5 0 0 0-.354-.16h-6.401V6.083h6.401q1.075 0 1.841.767.767.766.767 1.84v6.402zM20 27.485q-3.005 0-5.12-2.115t-2.115-5.12 2.115-5.12T20 13.015q3.003 0 5.12 2.115 2.115 2.116 2.115 5.12t-2.116 5.12-5.12 2.115m0-2.094q2.163 0 3.652-1.49 1.488-1.489 1.489-3.651 0-2.163-1.49-3.652T20 15.11t-3.652 1.49-1.489 3.651q0 2.163 1.49 3.652 1.489 1.488 3.65 1.489" fill="#fff"/></g></svg>
